icons/Alarm.svg

<svg width="24" height="24" viewBox="0 0 24 24" fill="none" xmlns="http://www.w3.org/2000/svg">
<path fill-rule="evenodd" clip-rule="evenodd" d="M11.9 4.118C13.9975 4.13648 16.0018 4.98736 17.4721 6.48349C18.9423 7.97961 19.7581 9.99846 19.74 12.096C19.7438 13.7549 19.2342 15.3743 18.281 16.732C18.2884 16.7368 18.2951 16.7425 18.301 16.749L20.673 19.1C20.7766 19.2028 20.8588 19.3251 20.9149 19.4598C20.971 19.5946 20.9999 19.7391 20.9999 19.885C20.9999 20.0309 20.971 20.1754 20.9149 20.3102C20.8588 20.4449 20.7766 20.5672 20.673 20.67C20.463 20.8783 20.1793 20.9952 19.8835 20.9952C19.5877 20.9952 19.304 20.8783 19.094 20.67L16.763 18.351C15.4054 19.4471 13.7171 20.052 11.9723 20.0674C10.2275 20.0829 8.52877 19.5079 7.152 18.436L4.906 20.675C4.69604 20.8833 4.41226 21.0002 4.1165 21.0002C3.82074 21.0002 3.53697 20.8833 3.327 20.675C3.22342 20.5722 3.1412 20.4499 3.0851 20.3152C3.02899 20.1804 3.00011 20.0359 3.00011 19.89C3.00011 19.7441 3.02899 19.5996 3.0851 19.4648C3.1412 19.3301 3.22342 19.2078 3.327 19.105L5.6 16.842C4.5982 15.4642 4.0603 13.8035 4.064 12.1C4.04482 10.0025 4.85957 7.98318 6.32907 6.4863C7.79857 4.98943 9.80246 4.13754 11.9 4.118ZM11.9 7.442C11.8047 7.44306 11.7137 7.48186 11.647 7.54991C11.5802 7.61796 11.5432 7.70969 11.544 7.805V12.1H8.518C8.42515 12.1049 8.33772 12.1452 8.27372 12.2126C8.20972 12.2801 8.17405 12.3695 8.17405 12.4625C8.17405 12.5555 8.20972 12.6449 8.27372 12.7124C8.33772 12.7798 8.42515 12.8201 8.518 12.825H11.9C11.9953 12.8239 12.0863 12.7851 12.153 12.7171C12.2198 12.649 12.2568 12.5573 12.256 12.462V7.8C12.2555 7.70556 12.2179 7.6151 12.1513 7.54813C12.0847 7.48117 11.9944 7.44305 11.9 7.442ZM6.808 3.03C7.3463 3.03002 7.87496 3.17288 8.34 3.444L4.114 7.744C3.84675 7.26789 3.70658 6.73099 3.707 6.185C3.70008 5.35547 4.02284 4.55714 4.60434 3.96552C5.18584 3.37389 5.97848 3.03739 6.808 3.03ZM17.028 3C17.8574 3.00766 18.6497 3.34427 19.231 3.93587C19.8123 4.52747 20.1349 5.32564 20.128 6.155C20.1284 6.70099 19.9883 7.23789 19.721 7.714L15.5 3.414C15.9639 3.14356 16.4911 3.00073 17.028 3Z" fill="black"/>
</svg>

<svg xmlns="http://www.w3.org/2000/svg" viewBox="0 0 24 24">
  <path d="M11.9 4.118a7.91 7.91 0 017.84 7.978 8.036 8.036 0 01-1.459 4.636c.007.005.014.01.02.017l2.372 2.351a1.106 1.106 0 010 1.57 1.121 1.121 0 01-1.579 0l-2.331-2.319a7.735 7.735 0 01-9.611.085l-2.246 2.239a1.121 1.121 0 01-1.82-.36 1.106 1.106 0 01.241-1.21L5.6 16.842A8.034 8.034 0 014.064 12.1 7.91 7.91 0 0111.9 4.118zm0 3.324a.36.36 0 00-.356.363V12.1H8.518a.363.363 0 000 .725H11.9a.36.36 0 00.356-.363V7.8a.36.36 0 00-.356-.358zM6.808 3.03c.538 0 1.067.143 1.532.414l-4.226 4.3a3.18 3.18 0 01-.407-1.559A3.129 3.129 0 016.808 3.03zM17.028 3a3.129 3.129 0 013.1 3.155 3.18 3.18 0 01-.407 1.559l-4.221-4.3c.464-.27.991-.413 1.528-.414z"/>
</svg>
